icons/nounproject/branch.svg

<svg viewBox="0 0 88 92" xmlns="http://www.w3.org/2000/svg"><title>branch</title><g fill="none" fill-rule="evenodd"><path d="M52.753 37.729c-.194.99-.608 1.758-1.21 2.285 1.73 4.335 3.825 8.934 6.321 13.81 2.529-3.976 6.647-10.922 9.285-17.784a5.662 5.662 0 0 1-1.248-1.337c-.331-.504-2.124-2.712-4.931-4.95-.234.282-.472.551-.716.788-1.738 1.799-3.288 2.857-4.533 3.707-1.701 1.161-2.639 1.801-2.968 3.481zM51.061 50.092a147.856 147.856 0 0 1-2.96-9.341 8.256 8.256 0 0 1-1.994-.633c-.876-.41-5.801-2.194-11.864-2.815-.065 1.138-.242 2.057-.396 2.831-.292 1.464-.426 2.132.334 3.18.572.789.724 1.468.699 2.009 6.379 2.274 12.615 3.909 16.181 4.769z"/><path d="M83.514 25.13c1.248-1.733 2.572-4.253 1.84-5.335-.586-.829-2.71-1.002-4.388-1.002-.552 0-1.107.022-1.65.066.054-.275.104-.556.149-.84 1.241-1.706 3.241-5.688 2.016-6.763-.302-.251-.668-.28-.917-.28-.204 0-.436.024-.674.062-.066-2.819-.415-6.541-1.795-6.876-.879-.179-2.273 1.086-4.246 3.845-.751-.633-1.575-1.182-2.174-1.182-.089 0-.233.02-.317.045-1.482.441-1.896 4.975-1.347 7.555a31.652 31.652 0 0 0-.766 1.712c-1.454-2.043-3.577-3.983-4.736-3.862-.201.023-.739.086-1.601 1.17-2.788-2.542-6.279-4.771-7.569-4.771-.195 0-.375.038-.559.125-.793.403-.946 2.002-.742 3.957-1.528.357-3.817 1.465-5.751 2.804a35.75 35.75 0 0 0-.724-1.509c.063-3.058-1.073-7.909-2.67-8.232a1.53 1.53 0 0 0-.203-.018c-.201 0-.676 0-1.731.907C41.466 4.7 37.858.085 36.223.085c-.089 0-.238.02-.323.045-.398.118-1.565.465-1.559 6.743-.88-.171-1.661-.265-2.231-.265-.466 0-.991.048-1.362.427-.231.248-.338.585-.315 1.002.078 1.5 2.106 5.45 4.688 7.83.166.924.356 1.808.57 2.645-2.518-1.14-5.349-1.854-6.915-1.854-.571 0-.977.096-1.288.313-.2.145-.74.536-.814 2.297-3.675-.835-7.179-1.14-9.189-1.14-2.222 0-2.886.322-3.217.833-.835 1.387 2.644 5.438 6.381 8.639-1.096.47-2.075 2.777-2.526 4.829a34.08 34.08 0 0 0-1.146-.465c-1.789-1.799-4.817-3.647-6.012-3.647-.192 0-.369.039-.546.125-.402.208-.638.625-.733 1.331-2.597-.593-5.021-.964-6.376-.964-.636 0-1.272.067-1.635.589-.266.419-.742 1.171 2.866 4.709-1.797.963-1.781 1.545-1.771 1.873.095 1.598 5.406 3.043 7.87 3.235.491.347.977.674 1.453.979-2.377.646-5.032 1.794-5.255 2.971-.057.346-.004.831.706 1.646-2.583 1.262-7.6 4.035-7.171 5.723.586 2.019 9.989 2.181 10.084 2.181.682 0 1.343-.021 1.973-.061.126 1.262.487 3.326 1.521 3.792.176.076.371.113.599.113 1.16 0 3.333-1.033 4.917-2.071.308-.129.618-.322.944-.588 4.505-3.664 10.221-5.481 11.159-5.688.227-.05.657-.161 1.134-.361 9.437 4.399 18.831 7.248 19.412 7.422l.404.119c.395.114.474.137.607.271 7.398 19.469 17.037 35.312 17.134 35.47a.913.913 0 0 0 .469.383 6.58 6.58 0 0 0 2.25.395c2.377 0 4.711-1.274 5.809-3.171a.915.915 0 0 0-.056-1.001c-.096-.129-9.535-12.976-18.214-28.894 1.63-3.013 6.654-12.705 9.167-22.111.699-.117 1.369-.473 1.996-1.09 1.001-.983 1.918-1.067 3.584-1.218 1.23-.112 2.764-.251 4.771-.815 3.157-.792 7.875-4.09 7.614-5.803-.198-1.14-2.591-2.143-4.137-2.678zm-3.946 6.717c-1.871.525-3.311.656-4.468.761-1.807.164-3.233.293-4.699 1.735-.419.411-.823.619-1.202.619-.743 0-1.461-.793-1.769-1.263-.364-.554-2.339-2.991-5.395-5.424 1.952-3.085 3.138-7.185 2.076-8.309-.285-.291-.848-.625-2.683-.625-1.106 0-2.389.125-3.672.345a16.73 16.73 0 0 1-.302-.685c-.021-2.427-.51-5.146-1.553-6.041-.119-.986-.151-1.8-.114-2.305 1.213.528 4.098 2.353 6.617 4.832a.917.917 0 0 0 1.415-.163c.413-.654.734-1.01.909-1.169.782.405 2.867 2.381 3.901 4.481a.917.917 0 0 0 1.693-.128c.348-1.096.843-2.298 1.473-3.572a.914.914 0 0 0 .063-.642c-.507-1.895-.18-4.344.137-5.401.326.223.802.595 1.374 1.146a.911.911 0 0 0 .728.25.908.908 0 0 0 .661-.394c1.244-1.821 2.219-2.953 2.796-3.525.242.996.518 3.015.518 5.801a.916.916 0 0 0 1.155.883c.306-.083.551-.139.745-.176-.25.978-.984 2.772-2.1 4.212a.914.914 0 0 0-.182.421c-.117.768-.264 1.5-.436 2.177a.917.917 0 0 0 1.025 1.129 18.12 18.12 0 0 1 2.684-.197c1.374 0 2.301.145 2.748.264-.19.749-1.009 2.516-2.425 4.112a.915.915 0 0 0 .448 1.49c1.87.501 3.337 1.221 3.939 1.64-.753.915-3.461 3.059-6.105 3.721zM72.98 90.085c-.453 0-.899-.063-1.331-.188-1.331-2.225-10.071-17.092-16.875-35.048a.916.916 0 0 0-.182-.294c-.555-.605-.881-.718-1.565-.916l-.382-.112c-.111-.034-6.066-1.837-13.227-4.76a175.676 175.676 0 0 0 12.866 3.494.915.915 0 0 0 1.064-1.204 154.706 154.706 0 0 1-3.005-9.093c1.824 4.435 4.034 9.145 6.622 14.107a.913.913 0 0 0 1.577.078c1.694-2.592 3.937-6.209 6.078-10.245a127.589 127.589 0 0 1-5.943 12.505.917.917 0 0 0-.002.876c7.81 14.4 16.312 26.395 18.201 29.014-.766.929-2.179 1.786-3.896 1.786zm-53.723-37.6c-.254.207-.43.296-.533.334a.948.948 0 0 0-.188.095c-1.625 1.079-3.163 1.679-3.796 1.798-.212-.453-.505-1.609-.547-3.068a.914.914 0 0 0-1.008-.884c-.842.086-1.761.129-2.729.129-3.37 0-6.475-.505-7.854-.915 1.08-.938 3.723-2.705 6.881-4.046a.916.916 0 0 0 .243-1.531 7.412 7.412 0 0 1-.911-.914c.857-.584 3.364-1.668 5.891-1.96a.916.916 0 0 0 .327-1.716 32.665 32.665 0 0 1-3.546-2.232.913.913 0 0 0-.495-.17c-2.16-.087-4.642-.95-5.854-1.532.328-.19.778-.422 1.356-.675a.917.917 0 0 0 .257-1.508c-1.443-1.345-2.367-2.37-2.89-3.032 1.327.087 3.664.452 6.472 1.149a.915.915 0 0 0 1.135-.914 6.383 6.383 0 0 1 .005-.567c.98.431 2.926 1.586 4.327 3.052a.918.918 0 0 0 .335.222c.825.314 1.597.642 2.295.972a.916.916 0 0 0 1.3-.719c.245-2.075 1.11-3.952 1.551-4.495.374.137 1.096.565 1.907 1.19-1.054 1.281-2.265 3.077-1.812 4.138.738 1.63 6.242 2.179 7.042 2.25.374.102.83.16 1.399.15l.372-.002c.753 0 1.495.03 2.229.073-.055 1.035-.217 1.866-.367 2.617-.313 1.565-.582 2.917.647 4.612.211.292.439.701.326.999-.174.457-1.062.871-1.849 1.043-1.005.223-7.134 2.166-11.918 6.057zm-1.774-32.527c2.115 0 5.975.357 9.892 1.362a.914.914 0 0 0 1.141-.941c-.063-1.026.025-1.623.097-1.886.044-.003.098-.005.163-.005 1.51 0 5.255.993 7.924 2.609a.915.915 0 0 0 1.34-1.074c-.473-1.405-.867-3.013-1.172-4.781a.917.917 0 0 0-.301-.535c-2.177-1.896-3.778-4.95-4.199-6.263.667.036 1.643.201 2.684.457a.916.916 0 0 0 1.132-.907c-.064-3.027.167-4.927.371-5.796.991.79 3.119 3.032 5.532 6.417a.914.914 0 0 0 1.398.111 8.928 8.928 0 0 1 1.015-.91c.506.979 1.346 3.747 1.229 6.402a.904.904 0 0 0 .102.459c.477.923.887 1.813 1.221 2.645a.916.916 0 0 0 1.414.378c2.444-1.924 5.361-3.134 6.359-3.238.42.681 1.056 3.445.72 6.31a.914.914 0 0 0 1.117.997c1.598-.375 3.381-.599 4.77-.599.707 0 1.101.057 1.3.102.076 1.201-1.266 5.543-3.771 7.977-1.628 1.686-3.092 2.685-4.269 3.487-1.821 1.243-3.26 2.225-3.732 4.64-.222 1.133-.791 1.638-1.845 1.638-.772 0-1.658-.286-2.23-.554-1.124-.527-8.551-3.205-16.692-3.205l-.456.002c-.459 0-.732-.054-.882-.1a.87.87 0 0 0-.196-.037c-2.709-.209-4.808-.822-5.503-1.193.221-.581 1.054-1.927 2.589-3.49a.918.918 0 0 0-.167-1.417c-4.64-2.905-8.503-7.37-9.438-8.999.284-.033.714-.063 1.343-.063zm43.488 9.795c2.807 2.238 4.6 4.446 4.931 4.95.173.265.608.851 1.248 1.337-2.638 6.861-6.756 13.808-9.285 17.784-2.496-4.875-4.591-9.475-6.321-13.81.602-.527 1.016-1.296 1.21-2.285.329-1.679 1.267-2.319 2.969-3.48 1.245-.85 2.795-1.908 4.533-3.707.243-.238.481-.507.715-.789zm-26.79 13.56c-.76-1.047-.626-1.716-.334-3.18.154-.774.331-1.693.396-2.831 6.063.621 10.989 2.405 11.864 2.815a8.256 8.256 0 0 0 1.994.633 147.65 147.65 0 0 0 2.96 9.341c-3.566-.86-9.802-2.495-16.181-4.77.024-.54-.127-1.219-.699-2.008z" fill="#FFF"/><path d="M42.506 20.153c1.613 5.603 4.051 14.07 5.805 17.306a.912.912 0 0 0 1.24.368.915.915 0 0 0 .368-1.24c-1.658-3.062-4.16-11.75-5.654-16.94-.701-2.433-1.207-4.19-1.45-4.8a.916.916 0 0 0-1.699.68c.208.524.756 2.425 1.39 4.626zM74.945 15.825a.922.922 0 0 0-1.013.804c-.066.579-1.109 3.242-2.028 5.591-1.52 3.88-3.24 8.279-3.525 10.306a.913.913 0 1 0 1.81.255c.256-1.815 2.009-6.295 3.418-9.895 1.309-3.343 2.053-5.272 2.142-6.049a.914.914 0 0 0-.804-1.012zM30.479 45.262a.915.915 0 0 0 .55-1.744c-3.446-1.088-9.978-4.933-11.856-6.437a.915.915 0 0 0-1.142 1.429c1.942 1.554 8.688 5.565 12.448 6.752z" fill="#FFF"/></g></svg>

<?xml version="1.0" encoding="UTF-8" standalone="no"?>
<svg viewBox="0 0 88 92" version="1.1" xmlns="http://www.w3.org/2000/svg" xmlns:xlink="http://www.w3.org/1999/xlink">
    <!-- Generator: Sketch 3.6.1 (26313) - http://www.bohemiancoding.com/sketch -->
    <title>branch</title>
    <desc>Created with Sketch.</desc>
    <defs></defs>
    <g id="Page-1" stroke="none" stroke-width="1" fill="none" fill-rule="evenodd">
        <g id="branch">
            <path d="M52.753,37.729 C52.559,38.719 52.145,39.487 51.543,40.014 C53.273,44.349 55.368,48.948 57.864,53.824 C60.393,49.848 64.511,42.902 67.149,36.04 C66.509,35.554 66.074,34.968 65.901,34.703 C65.57,34.199 63.777,31.991 60.97,29.753 C60.736,30.035 60.498,30.304 60.254,30.541 C58.516,32.34 56.966,33.398 55.721,34.248 C54.02,35.409 53.082,36.049 52.753,37.729 L52.753,37.729 Z" id="Shape"></path>
            <path d="M51.061,50.092 C49.916,46.846 48.936,43.735 48.101,40.751 C47.205,40.594 46.45,40.279 46.107,40.118 C45.231,39.708 40.306,37.924 34.243,37.303 C34.178,38.441 34.001,39.36 33.847,40.134 C33.555,41.598 33.421,42.266 34.181,43.314 C34.753,44.103 34.905,44.782 34.88,45.323 C41.259,47.597 47.495,49.232 51.061,50.092 L51.061,50.092 Z" id="Shape"></path>
            <path d="M83.514,25.13 C84.762,23.397 86.086,20.877 85.354,19.795 C84.768,18.966 82.644,18.793 80.966,18.793 C80.414,18.793 79.859,18.815 79.316,18.859 C79.37,18.584 79.42,18.303 79.465,18.019 C80.706,16.313 82.706,12.331 81.481,11.256 C81.179,11.005 80.813,10.976 80.564,10.976 C80.36,10.976 80.128,11 79.89,11.038 C79.824,8.219 79.475,4.497 78.095,4.162 C77.216,3.983 75.822,5.248 73.849,8.007 C73.098,7.374 72.274,6.825 71.675,6.825 C71.586,6.825 71.442,6.845 71.358,6.87 C69.876,7.311 69.462,11.845 70.011,14.425 C69.729,15.01 69.473,15.582 69.245,16.137 C67.791,14.094 65.668,12.154 64.509,12.275 C64.308,12.298 63.77,12.361 62.908,13.445 C60.12,10.903 56.629,8.674 55.339,8.674 C55.144,8.674 54.964,8.712 54.78,8.799 C53.987,9.202 53.834,10.801 54.038,12.756 C52.51,13.113 50.221,14.221 48.287,15.56 C48.066,15.069 47.824,14.565 47.563,14.051 C47.626,10.993 46.49,6.142 44.893,5.819 C44.84,5.81 44.744,5.801 44.69,5.801 C44.489,5.801 44.014,5.801 42.959,6.708 C41.466,4.7 37.858,0.085 36.223,0.085 C36.134,0.085 35.985,0.105 35.9,0.13 C35.502,0.248 34.335,0.595 34.341,6.873 C33.461,6.702 32.68,6.608 32.11,6.608 C31.644,6.608 31.119,6.656 30.748,7.035 C30.517,7.283 30.41,7.62 30.433,8.037 C30.511,9.537 32.539,13.487 35.121,15.867 C35.287,16.791 35.477,17.675 35.691,18.512 C33.173,17.372 30.342,16.658 28.776,16.658 C28.205,16.658 27.799,16.754 27.488,16.971 C27.288,17.116 26.748,17.507 26.674,19.268 C22.999,18.433 19.495,18.128 17.485,18.128 C15.263,18.128 14.599,18.45 14.268,18.961 C13.433,20.348 16.912,24.399 20.649,27.6 C19.553,28.07 18.574,30.377 18.123,32.429 C17.754,32.271 17.371,32.116 16.977,31.964 C15.188,30.165 12.16,28.317 10.965,28.317 C10.773,28.317 10.596,28.356 10.419,28.442 C10.017,28.65 9.781,29.067 9.686,29.773 C7.089,29.18 4.665,28.809 3.31,28.809 C2.674,28.809 2.038,28.876 1.675,29.398 C1.409,29.817 0.933,30.569 4.541,34.107 C2.744,35.07 2.76,35.652 2.77,35.98 C2.865,37.578 8.176,39.023 10.64,39.215 C11.131,39.562 11.617,39.889 12.093,40.194 C9.716,40.84 7.061,41.988 6.838,43.165 C6.781,43.511 6.834,43.996 7.544,44.811 C4.961,46.073 -0.056,48.846 0.373,50.534 C0.959,52.553 10.362,52.715 10.457,52.715 C11.139,52.715 11.8,52.694 12.43,52.654 C12.556,53.916 12.917,55.98 13.951,56.446 C14.127,56.522 14.322,56.559 14.55,56.559 C15.71,56.559 17.883,55.526 19.467,54.488 C19.775,54.359 20.085,54.166 20.411,53.9 C24.916,50.236 30.632,48.419 31.57,48.212 C31.797,48.162 32.227,48.051 32.704,47.851 C42.141,52.25 51.535,55.099 52.116,55.273 L52.52,55.392 C52.915,55.506 52.994,55.529 53.127,55.663 C60.525,75.132 70.164,90.975 70.261,91.133 C70.369,91.31 70.534,91.445 70.73,91.516 C71.453,91.778 72.209,91.911 72.98,91.911 C75.357,91.911 77.691,90.637 78.789,88.74 C78.971,88.425 78.949,88.032 78.733,87.739 C78.637,87.61 69.198,74.763 60.519,58.845 C62.149,55.832 67.173,46.14 69.686,36.734 C70.385,36.617 71.055,36.261 71.682,35.644 C72.683,34.661 73.6,34.577 75.266,34.426 C76.496,34.314 78.03,34.175 80.037,33.611 C83.194,32.819 87.912,29.521 87.651,27.808 C87.453,26.668 85.06,25.665 83.514,25.13 L83.514,25.13 Z M79.568,31.847 C77.697,32.372 76.257,32.503 75.1,32.608 C73.293,32.772 71.867,32.901 70.401,34.343 C69.982,34.754 69.578,34.962 69.199,34.962 C68.456,34.962 67.738,34.169 67.43,33.699 C67.066,33.145 65.091,30.708 62.035,28.275 C63.987,25.19 65.173,21.09 64.111,19.966 C63.826,19.675 63.263,19.341 61.428,19.341 C60.322,19.341 59.039,19.466 57.756,19.686 C57.65,19.46 57.55,19.232 57.454,19.001 C57.433,16.574 56.944,13.855 55.901,12.96 C55.782,11.974 55.75,11.16 55.787,10.655 C57,11.183 59.885,13.008 62.404,15.487 C62.601,15.681 62.881,15.777 63.151,15.744 C63.425,15.712 63.672,15.557 63.819,15.324 C64.232,14.67 64.553,14.314 64.728,14.155 C65.51,14.56 67.595,16.536 68.629,18.636 C68.793,18.97 69.149,19.169 69.518,19.144 C69.891,19.116 70.208,18.864 70.322,18.508 C70.67,17.412 71.165,16.21 71.795,14.936 C71.893,14.737 71.916,14.509 71.858,14.294 C71.351,12.399 71.678,9.95 71.995,8.893 C72.321,9.116 72.797,9.488 73.369,10.039 C73.562,10.226 73.83,10.317 74.097,10.289 C74.365,10.262 74.607,10.118 74.758,9.895 C76.002,8.074 76.977,6.942 77.554,6.37 C77.796,7.366 78.072,9.385 78.072,12.171 C78.073,12.456 78.206,12.725 78.431,12.898 C78.659,13.071 78.952,13.129 79.227,13.054 C79.533,12.971 79.778,12.915 79.972,12.878 C79.722,13.856 78.988,15.65 77.872,17.09 C77.776,17.213 77.714,17.358 77.69,17.511 C77.573,18.279 77.426,19.011 77.254,19.688 C77.179,19.985 77.258,20.301 77.464,20.528 C77.67,20.755 77.979,20.863 78.279,20.817 C79.118,20.689 80.046,20.62 80.963,20.62 C82.337,20.62 83.264,20.765 83.711,20.884 C83.521,21.633 82.702,23.4 81.286,24.996 C81.076,25.233 81.004,25.562 81.095,25.866 C81.186,26.169 81.428,26.404 81.734,26.486 C83.604,26.987 85.071,27.707 85.673,28.126 C84.92,29.041 82.212,31.185 79.568,31.847 L79.568,31.847 Z M72.98,90.085 C72.527,90.085 72.081,90.022 71.649,89.897 C70.318,87.672 61.578,72.805 54.774,54.849 C54.733,54.741 54.671,54.641 54.592,54.555 C54.037,53.95 53.711,53.837 53.027,53.639 L52.645,53.527 C52.534,53.493 46.579,51.69 39.418,48.767 C45.036,50.531 49.954,51.726 52.284,52.261 C52.607,52.336 52.952,52.227 53.174,51.975 C53.396,51.724 53.462,51.372 53.348,51.057 C52.202,47.905 51.2,44.871 50.343,41.964 C52.167,46.399 54.377,51.109 56.965,56.071 C57.114,56.359 57.406,56.546 57.731,56.562 C58.053,56.575 58.364,56.421 58.542,56.149 C60.236,53.557 62.479,49.94 64.62,45.904 C62.177,51.898 59.526,56.861 58.677,58.409 C58.528,58.681 58.527,59.012 58.675,59.285 C66.485,73.685 74.987,85.68 76.876,88.299 C76.11,89.228 74.697,90.085 72.98,90.085 L72.98,90.085 Z M19.257,52.485 C19.003,52.692 18.827,52.781 18.724,52.819 C18.658,52.843 18.595,52.876 18.536,52.914 C16.911,53.993 15.373,54.593 14.74,54.712 C14.528,54.259 14.235,53.103 14.193,51.644 C14.186,51.39 14.073,51.151 13.882,50.983 C13.714,50.836 13.499,50.756 13.278,50.756 C13.248,50.756 13.216,50.757 13.185,50.76 C12.343,50.846 11.424,50.889 10.456,50.889 C7.086,50.889 3.981,50.384 2.602,49.974 C3.682,49.036 6.325,47.269 9.483,45.928 C9.773,45.805 9.979,45.541 10.029,45.23 C10.079,44.918 9.964,44.604 9.726,44.397 C9.265,43.996 8.98,43.689 8.815,43.483 C9.672,42.899 12.179,41.815 14.706,41.523 C15.103,41.477 15.425,41.178 15.5,40.785 C15.575,40.392 15.386,39.996 15.033,39.807 C13.917,39.21 12.723,38.459 11.487,37.575 C11.341,37.471 11.17,37.412 10.992,37.405 C8.832,37.318 6.35,36.455 5.138,35.873 C5.466,35.683 5.916,35.451 6.494,35.198 C6.776,35.074 6.977,34.817 7.029,34.513 C7.081,34.209 6.976,33.9 6.751,33.69 C5.308,32.345 4.384,31.32 3.861,30.658 C5.188,30.745 7.525,31.11 10.333,31.807 C10.614,31.876 10.905,31.811 11.128,31.632 C11.351,31.453 11.477,31.179 11.468,30.893 C11.461,30.667 11.464,30.479 11.473,30.326 C12.453,30.757 14.399,31.912 15.8,33.378 C15.894,33.476 16.009,33.552 16.135,33.6 C16.96,33.914 17.732,34.242 18.43,34.572 C18.696,34.697 19.006,34.688 19.265,34.546 C19.522,34.403 19.696,34.145 19.73,33.853 C19.975,31.778 20.84,29.901 21.281,29.358 C21.655,29.495 22.377,29.923 23.188,30.548 C22.134,31.829 20.923,33.625 21.376,34.686 C22.114,36.316 27.618,36.865 28.418,36.936 C28.792,37.038 29.248,37.096 29.817,37.086 L30.189,37.084 C30.942,37.084 31.684,37.114 32.418,37.157 C32.363,38.192 32.201,39.023 32.051,39.774 C31.738,41.339 31.469,42.691 32.698,44.386 C32.909,44.678 33.137,45.087 33.024,45.385 C32.85,45.842 31.962,46.256 31.175,46.428 C30.17,46.651 24.041,48.594 19.257,52.485 L19.257,52.485 Z M17.483,19.958 C19.598,19.958 23.458,20.315 27.375,21.32 C27.658,21.395 27.96,21.326 28.185,21.14 C28.411,20.953 28.534,20.671 28.516,20.379 C28.453,19.353 28.541,18.756 28.613,18.493 C28.657,18.49 28.711,18.488 28.776,18.488 C30.286,18.488 34.031,19.481 36.7,21.097 C37.025,21.296 37.445,21.269 37.746,21.029 C38.046,20.789 38.163,20.387 38.04,20.023 C37.567,18.618 37.173,17.01 36.868,15.242 C36.832,15.034 36.726,14.846 36.567,14.707 C34.39,12.811 32.789,9.757 32.368,8.444 C33.035,8.48 34.011,8.645 35.052,8.901 C35.325,8.969 35.619,8.905 35.842,8.727 C36.064,8.549 36.191,8.278 36.184,7.994 C36.12,4.967 36.351,3.067 36.555,2.198 C37.546,2.988 39.674,5.23 42.087,8.615 C42.244,8.835 42.49,8.975 42.76,8.996 C43.028,9.014 43.294,8.918 43.485,8.726 C43.933,8.27 44.272,7.985 44.5,7.816 C45.006,8.795 45.846,11.563 45.729,14.218 C45.722,14.377 45.757,14.536 45.831,14.677 C46.308,15.6 46.718,16.49 47.052,17.322 C47.159,17.589 47.386,17.79 47.664,17.865 C47.943,17.938 48.239,17.879 48.466,17.7 C50.91,15.776 53.827,14.566 54.825,14.462 C55.245,15.143 55.881,17.907 55.545,20.772 C55.51,21.068 55.622,21.363 55.844,21.561 C56.067,21.759 56.369,21.837 56.662,21.769 C58.26,21.394 60.043,21.17 61.432,21.17 C62.139,21.17 62.533,21.227 62.732,21.272 C62.808,22.473 61.466,26.815 58.961,29.249 C57.333,30.935 55.869,31.934 54.692,32.736 C52.871,33.979 51.432,34.961 50.96,37.376 C50.738,38.509 50.169,39.014 49.115,39.014 C48.343,39.014 47.457,38.728 46.885,38.46 C45.761,37.933 38.334,35.255 30.193,35.255 L29.737,35.257 C29.278,35.257 29.005,35.203 28.855,35.157 C28.792,35.137 28.725,35.125 28.659,35.12 C25.95,34.911 23.851,34.298 23.156,33.927 C23.377,33.346 24.21,32 25.745,30.437 C25.939,30.239 26.033,29.964 26.001,29.688 C25.969,29.413 25.813,29.167 25.578,29.02 C20.938,26.115 17.075,21.65 16.14,20.021 C16.424,19.988 16.854,19.958 17.483,19.958 L17.483,19.958 Z M60.971,29.753 C63.778,31.991 65.571,34.199 65.902,34.703 C66.075,34.968 66.51,35.554 67.15,36.04 C64.512,42.901 60.394,49.848 57.865,53.824 C55.369,48.949 53.274,44.349 51.544,40.014 C52.146,39.487 52.56,38.718 52.754,37.729 C53.083,36.05 54.021,35.41 55.723,34.249 C56.968,33.399 58.518,32.341 60.256,30.542 C60.499,30.304 60.737,30.035 60.971,29.753 L60.971,29.753 Z M34.181,43.313 C33.421,42.266 33.555,41.597 33.847,40.133 C34.001,39.359 34.178,38.44 34.243,37.302 C40.306,37.923 45.232,39.707 46.107,40.117 C46.45,40.278 47.205,40.593 48.101,40.75 C48.936,43.735 49.916,46.845 51.061,50.091 C47.495,49.231 41.259,47.596 34.88,45.321 C34.904,44.781 34.753,44.102 34.181,43.313 L34.181,43.313 Z" id="Shape" fill="#FFFFFF"></path>
            <path d="M42.506,20.153 C44.119,25.756 46.557,34.223 48.311,37.459 C48.476,37.765 48.79,37.938 49.116,37.938 C49.263,37.938 49.412,37.902 49.551,37.827 C49.995,37.586 50.16,37.031 49.919,36.587 C48.261,33.525 45.759,24.837 44.265,19.647 C43.564,17.214 43.058,15.457 42.815,14.847 C42.627,14.378 42.093,14.152 41.626,14.338 C41.157,14.526 40.929,15.058 41.116,15.527 C41.324,16.051 41.872,17.952 42.506,20.153 L42.506,20.153 Z" id="Shape" fill="#FFFFFF"></path>
            <path d="M74.945,15.825 C74.451,15.773 73.989,16.127 73.932,16.629 C73.866,17.208 72.823,19.871 71.904,22.22 C70.384,26.1 68.664,30.499 68.379,32.526 C68.308,33.026 68.656,33.489 69.156,33.559 C69.2,33.565 69.243,33.568 69.285,33.568 C69.734,33.568 70.126,33.238 70.189,32.781 C70.445,30.966 72.198,26.486 73.607,22.886 C74.916,19.543 75.66,17.614 75.749,16.837 C75.807,16.336 75.447,15.883 74.945,15.825 L74.945,15.825 Z" id="Shape" fill="#FFFFFF"></path>
            <path d="M30.479,45.262 C30.571,45.291 30.664,45.305 30.754,45.305 C31.143,45.305 31.503,45.055 31.626,44.665 C31.778,44.183 31.511,43.669 31.029,43.518 C27.583,42.43 21.051,38.585 19.173,37.081 C18.777,36.765 18.203,36.829 17.888,37.224 C17.573,37.618 17.636,38.194 18.031,38.51 C19.973,40.064 26.719,44.075 30.479,45.262 L30.479,45.262 Z" id="Shape" fill="#FFFFFF"></path>
        </g>
    </g>
</svg>
